X:515
T:Installation
M:6/8
L:1/8
K:G
BAB | G2 d d2 e | d3 cdc | B2 B ABA | G2 D BAB | 
G2 d d2 e | d3 gfg | f2 f efe | d3 :| 
d2 d | ded c2 B | c2 A c2 c | Bcd c2 B | A3 d2 d | 
e2 e fga | g2 G cdc | B2 B ABA | G3 :| 

